src/assets/icons/lock-open.svg

<svg width="14" height="14" viewBox="0 0 14 14" fill="none" xmlns="http://www.w3.org/2000/svg">
<g id="lock-open">
<g clip-path="url(#clip0_156_4586)">
<path id="Vector" fill-rule="evenodd" clip-rule="evenodd" d="M10.2 0C8.10063 0 6.4 1.70063 6.4 3.8V5.6H2.2C0.984974 5.6 0 6.58497 0 7.8V11.8C0 13.015 0.984974 14 2.2 14H7.8C9.01503 14 10 13.015 10 11.8V7.8C10 6.58497 9.01503 5.6 7.8 5.6H7.6V3.8C7.6 2.36337 8.76337 1.2 10.2 1.2C11.6366 1.2 12.8 2.36337 12.8 3.8C12.8 4.13137 13.0686 4.4 13.4 4.4C13.7314 4.4 14 4.13137 14 3.8C14 1.70063 12.2994 0 10.2 0ZM7 6.8H2.2C1.64772 6.8 1.2 7.24771 1.2 7.8V11.8C1.2 12.3523 1.64772 12.8 2.2 12.8H7.8C8.35229 12.8 8.8 12.3523 8.8 11.8V7.8C8.8 7.24771 8.35229 6.8 7.8 6.8H7Z" fill="black"/>
</g>
</g>
<defs>
<clipPath id="clip0_156_4586">
<rect width="14" height="14" fill="white"/>
</clipPath>
</defs>
</svg>

<svg xmlns="http://www.w3.org/2000/svg" fill="none" viewBox="0 0 14 14"><g clip-path="url(#a)"><path fill="#000" fill-rule="evenodd" d="M10.2 0a3.8 3.8 0 0 0-3.8 3.8v1.8H2.2A2.2 2.2 0 0 0 0 7.8v4A2.2 2.2 0 0 0 2.2 14h5.6a2.2 2.2 0 0 0 2.2-2.2v-4a2.2 2.2 0 0 0-2.2-2.2h-.2V3.8a2.6 2.6 0 1 1 5.2 0 .6.6 0 1 0 1.2 0C14 1.7 12.3 0 10.2 0M7 6.8H2.2a1 1 0 0 0-1 1v4a1 1 0 0 0 1 1h5.6a1 1 0 0 0 1-1v-4a1 1 0 0 0-1-1z" clip-rule="evenodd"/></g><defs><clipPath id="a"><path fill="#fff" d="M0 0h14v14H0z"/></clipPath></defs></svg>
